common/src/main/resources/glyphs/gutter/implementedMethod.svg

<svg xmlns="http://www.w3.org/2000/svg" width="12" height="12" fill="#91B859" viewBox="0 0 24 24"><path d="M12.42 5.29c-1.1-.1-2.07.71-2.17 1.82L10 10h2.82v2h-3l-.44 5.07A4.001 4.001 0 0 1 2 18.83l1.5-1.5c.33 1.05 1.46 1.64 2.5 1.3.78-.24 1.33-.93 1.4-1.74L7.82 12h-3v-2H8l.27-3.07a4.01 4.01 0 0 1 4.33-3.65c1.26.11 2.4.81 3.06 1.89l-1.5 1.5c-.25-.77-.93-1.31-1.74-1.38M22 13.65l-1.41-1.41-2.83 2.83-2.83-2.83-1.43 1.41 2.85 2.85-2.85 2.81 1.43 1.41 2.83-2.83 2.83 2.83L22 19.31l-2.83-2.81z"/><path fill="#64B5F6" d="M16.5 0h3v6.75l2.625-2.625L23.94 5.94 18 11.88l-5.94-5.94 1.815-1.815L16.5 6.75z"/></svg>

<!--
  - The MIT License (MIT)
  -
  - Copyright (c) 2015-2022 Elior "Mallowigi" Boukhobza
  -
  - Permission is hereby granted, free of charge, to any person obtaining a copy
  - of this software and associated documentation files (the "Software"), to deal
  - in the Software without restriction, including without limitation the rights
  - to use, copy, modify, merge, publish, distribute, sublicense, and/or sell
  - copies of the Software, and to permit persons to whom the Software is
  - furnished to do so, subject to the following conditions:
  -
  - The above copyright notice and this permission notice shall be included in all
  - copies or substantial portions of the Software.
  -
  - THE SOFTWARE IS PROVIDED "AS IS", WITHOUT WARRANTY OF ANY KIND, EXPRESS OR
  - IMPLIED, INCLUDING BUT NOT LIMITED TO THE WARRANTIES OF MERCHANTABILITY,
  - FITNESS FOR A PARTICULAR PURPOSE AND NONINFRINGEMENT. IN NO EVENT SHALL THE
  - AUTHORS OR COPYRIGHT HOLDERS BE LIABLE FOR ANY CLAIM, DAMAGES OR OTHER
  - LIABILITY, WHETHER IN AN ACTION OF CONTRACT, TORT OR OTHERWISE, ARISING FROM,
  - OUT OF OR IN CONNECTION WITH THE SOFTWARE OR THE USE OR OTHER DEALINGS IN THE
  - SOFTWARE.
  -
  -
  -->


<svg xmlns="http://www.w3.org/2000/svg" version="1.1" width="12px" height="12px" fill="#91B859" viewBox="0 0 24 24">
  <path
    d="M12.42,5.29C11.32,5.19 10.35,6 10.25,7.11L10,10H12.82V12H9.82L9.38,17.07C9.18,19.27 7.24,20.9 5.04,20.7C3.79,20.59 2.66,19.9 2,18.83L3.5,17.33C3.83,18.38 4.96,18.97 6,18.63C6.78,18.39 7.33,17.7 7.4,16.89L7.82,12H4.82V10H8L8.27,6.93C8.46,4.73 10.39,3.1 12.6,3.28C13.86,3.39 15,4.09 15.66,5.17L14.16,6.67C13.91,5.9 13.23,5.36 12.42,5.29M22,13.65L20.59,12.24L17.76,15.07L14.93,12.24L13.5,13.65L16.35,16.5L13.5,19.31L14.93,20.72L17.76,17.89L20.59,20.72L22,19.31L19.17,16.5L22,13.65Z" />

  <path fill="#64B5F6" transform="scale(0.75) translate(12 -4)"
        d="M10,4H14V13L17.5,9.5L19.92,11.92L12,19.84L4.08,11.92L6.5,9.5L10,13V4Z" />
</svg>
